X: 6
T: The Old Torn Petticoat
R: reel
M: 4/4
L: 1/8
K: Ador
B|c2 Bc AGEF|G2 BG dGBG|cABG AE3|GABG A3B|
cA A2 AGEF|G3B dG3 |cABG AE3|GABG A3B|
cA A2 AGEF|G2 BG DGBG|cA A2 AGEF|GABG (3AcA AB|
cA A2 AGEF|G2 BG dGBG|cABG AE3|GABG A3z||
|:(3Bcd ef g2 ea|aged cA A2|(3Bcd ef g2 dg|eaag a3g|
bagb agef|(3gfe dc BG G2|cABG AE3|GABG A4|
(3Bcd ef g2 ea|aged cA A2|(3Bcd ef g2 zg|eaag a3g|
b3g agef|(3gfe dc BG G2|cABG AE3|GABG A3z||


Tune 368	Setting 368

